assets/svg/clear.svg

<?xml version="1.0" encoding="UTF-8"?>
<svg width="1000px" height="1000px" viewBox="0 0 1000 1000" version="1.1" xmlns="http://www.w3.org/2000/svg" xmlns:xlink="http://www.w3.org/1999/xlink">
    <!-- Generator: sketchtool 52.4 (67378) - http://www.bohemiancoding.com/sketch -->
    <title>clear</title>
    <desc>Created with sketchtool.</desc>
    <g id="新版图标" stroke="none" stroke-width="1" fill="none" fill-rule="evenodd">
        <g id="clear" fill="#323233">
            <g id="圆角-关闭-面">
                <path d="M499.664508,539.503773 L656.445795,696.28506 C656.641057,696.480322 656.95764,696.480322 657.152902,696.28506 L695.729505,657.708457 C695.924767,657.513195 695.924767,657.196612 695.729505,657.00135 L538.948218,500.220063 L695.729505,343.438776 C695.924767,343.243514 695.924767,342.926932 695.729505,342.731669 L657.152902,304.155066 C656.95764,303.959804 656.641057,303.959804 656.445795,304.155066 L499.664508,460.936353 L342.883221,304.155066 C342.687959,303.959804 342.371377,303.959804 342.176114,304.155066 L303.599511,342.731669 C303.404249,342.926932 303.404249,343.243514 303.599511,343.438776 L460.380798,500.220063 L303.599511,657.00135 C303.404249,657.196612 303.404249,657.513195 303.599511,657.708457 L342.176114,696.28506 C342.371377,696.480322 342.687959,696.480322 342.883221,696.28506 L499.664508,539.503773 Z M500,944.444444 C254.540111,944.444444 55.5555556,745.459889 55.5555556,500 C55.5555556,254.540111 254.540111,55.5555556 500,55.5555556 C745.459889,55.5555556 944.444444,254.540111 944.444444,500 C944.444444,745.459889 745.459889,944.444444 500,944.444444 Z" id="Combined-Shape"></path>
            </g>
        </g>
    </g>
</svg>

<svg width="1000" height="1000" xmlns="http://www.w3.org/2000/svg"><path d="M499.665 539.504l156.78 156.781a.5.5 0 0 0 .708 0l38.577-38.577a.5.5 0 0 0 0-.707l-156.782-156.78L695.73 343.438a.5.5 0 0 0 0-.707l-38.577-38.577a.5.5 0 0 0-.707 0L499.665 460.936l-156.782-156.78a.5.5 0 0 0-.707 0L303.6 342.731a.5.5 0 0 0 0 .707L460.38 500.22 303.6 657.001a.5.5 0 0 0 0 .707l38.576 38.577a.5.5 0 0 0 .707 0l156.782-156.781zm.335 404.94C254.54 944.444 55.556 745.46 55.556 500S254.54 55.556 500 55.556 944.444 254.54 944.444 500 745.46 944.444 500 944.444z" fill="#323233" fill-rule="evenodd"/></svg>
